Obsidian-SemiLight/actions/16s/media-album-track.svg

<svg viewBox="0 0 16 16" xmlns="http://www.w3.org/2000/svg"><path d="m1 2v12h5v-1h-3v-10h3 7 1v-1zm10 2v1 2 2.5c-.4182-.3148-.934-.5-1.5-.5-1.385 0-2.5 1.115-2.5 2.5s1.115 2.5 2.5 2.5 2.5-1.115 2.5-2.5v-4.5-1h2c0-1.108-.892-2-2-2z" fill="#4d4d4d"/></svg>

<svg xmlns="http://www.w3.org/2000/svg" viewBox="0 0 16 16">
  <defs id="defs3051">
    <style type="text/css" id="current-color-scheme">
      .ColorScheme-Text {
        color:#4d4d4d;
      }
      </style>
  </defs>
 <path style="fill:currentColor;fill-opacity:1;stroke:none" 
     d="M 1 2 L 1 14 L 6 14 L 6 13 L 3 13 L 3 3 L 6 3 L 13 3 L 14 3 L 14 2 L 1 2 z M 11 4 L 11 5 L 11 7 L 11 9.5 C 10.5818 9.1852 10.066 9 9.5 9 C 8.115 9 7 10.115 7 11.5 C 7 12.885 8.115 14 9.5 14 C 10.885 14 12 12.885 12 11.5 L 12 7 L 12 6 L 14 6 C 14 4.892 13.108 4 12 4 L 11 4 z "
     class="ColorScheme-Text"
     />
</svg>
